src/topics/icons/kallithea.svg

<svg height="709" preserveAspectRatio="xMidYMid" viewBox="0 0 256 709" width="256" xmlns="http://www.w3.org/2000/svg"><path d="m256 315.320909c0-17.17577-13.971972-31.147742-31.147742-31.147742s-31.147741 13.971972-31.147741 31.147742c0 13.748079 8.961039 25.422485 21.344439 29.543177v37.214168s-.031985 1.796473-.996856 3.992754c-.970202 2.196281-1.332695 2.665389-1.332695 2.665389l-83.101514 85.596319 1.167441-185.351186s-.788955-10.187119 1.993711-14.654312c2.782667-4.461862 6.828728-7.159236 6.828728-7.159236l46.46307-47.795765s7.953522-7.169897 9.659372-12.159506c1.705849-4.984279.831601-22.314641.831601-22.314641l-1.759157-100.4052228c18.103326-5.0962247 31.424942-21.7175937 31.424942-41.4254836 0-23.7486205-19.318743-43.0673636-43.067363-43.0673636-23.74329 0-43.062033 19.3187431-43.062033 43.0673636 0 19.7505362 13.374924 36.3932282 31.536889 41.4521375l1.279386 100.7144079s.95421 8.028153 0 11.322574c-.948878 3.299753-4.6591 7.329821-4.6591 7.329821l-48.632697 49.960061s-10.032526 10.94409-11.653083 14.489058c-1.625888 3.539637-.836932 20.981946-.836932 20.981946v77.269641l-44.7945364-41.798638s-1.8337879-1.737834-3.1664827-4.99494c-1.3326947-3.262436-.8316015-8.993024-.8316015-8.993024l-1.4393103-128.466443c21.9947941-4.269954 38.6588093-23.652666 38.6588093-46.878871 0-26.35004-21.4350624-47.7797718-47.7797722-47.7797718-26.3500406 0-47.7797722 21.4297318-47.7797722 47.7797718 0 23.370136 16.8772463 42.843471 39.0799409 46.948171l1.4393103 133.061575s-.4317931 7.025966 1.5032797 10.986735c1.929742 3.9661 6.3276346 9.328864 6.3276346 9.328864l54.2886535 52.454865s1.716511 2.009704 4.493847 7.495075l-.165255 135.060617s1.43398 13.913333-10.6562268 15.155405h-41.3028757v.197239h-.1599234v116.226974h33.3067073v-.186577h.1599233v-82.73369h98.9072733v-.197239h.181247v-33.306707h-45.460884c-8.689169-1.43398-11.97826-6.914021-12.6606-15.155405l.170585-26.813818c4.23797-8.854424 12.820524-17.149116 12.820524-17.149116l86.262666-89.263895s3.198467-2.718697 4.499177-7.660329c1.354018-5.12821 1.497949-9.328864 1.497949-9.328864l-.149262-35.609603c12.527331-4.040731 21.616309-15.795098 21.616309-29.644462zm-106.359703-272.2535454c0-18.4871416 15.032797-33.52526919 33.519939-33.52526919 18.487141 0 33.525269 15.03812759 33.525269 33.52526919 0 18.4871415-15.038128 33.5252691-33.525269 33.5252691-18.487142 0-33.519939-15.0381276-33.519939-33.5252691zm-140.09820259 92.3877304c0-21.083231 17.15444679-38.2376773 38.23767779-38.2376773 21.0832309 0 38.2376778 17.1544463 38.2376778 38.2376773s-17.1544469 38.237678-38.2376778 38.237678c-21.083231 0-38.23767779-17.154447-38.23767779-38.237678zm215.31016359 201.471462c-11.914291 0-21.605647-9.696687-21.605647-21.605647 0-11.914291 9.691356-21.605648 21.605647-21.605648s21.605648 9.691357 21.605648 21.605648c0 11.90896-9.691357 21.605647-21.605648 21.605647zm-70.403598 338.66439h-99.6002749v33.306707h132.9069819v-116.392229h-33.306707z" fill="#587635"/></svg>

<?xml version="1.0" encoding="UTF-8" standalone="no"?>
<svg width="256px" height="709px" viewBox="0 0 256 709" version="1.1" xmlns="http://www.w3.org/2000/svg" xmlns:xlink="http://www.w3.org/1999/xlink" preserveAspectRatio="xMidYMid">
    <g>
        <path d="M256,315.320909 C256,298.145139 242.028028,284.173167 224.852258,284.173167 C207.676488,284.173167 193.704517,298.145139 193.704517,315.320909 C193.704517,329.068988 202.665556,340.743394 215.048956,344.864086 L215.048956,382.078254 C215.048956,382.078254 215.016971,383.874727 214.0521,386.071008 C213.081898,388.267289 212.719405,388.736397 212.719405,388.736397 L129.617891,474.332716 L130.785332,288.98153 C130.785332,288.98153 129.996377,278.794411 132.779043,274.327218 C135.56171,269.865356 139.607771,267.167982 139.607771,267.167982 L186.070841,219.372217 C186.070841,219.372217 194.024363,212.20232 195.730213,207.212711 C197.436062,202.228432 196.561814,184.89807 196.561814,184.89807 L194.802657,84.4928472 C212.905983,79.3966225 226.227599,62.7752535 226.227599,43.0673636 C226.227599,19.3187431 206.908856,0 183.160236,0 C159.416946,0 140.098203,19.3187431 140.098203,43.0673636 C140.098203,62.8178998 153.473127,79.4605918 171.635092,84.5195011 L172.914478,185.233909 C172.914478,185.233909 173.868688,193.262062 172.914478,196.556483 C171.9656,199.856236 168.255378,203.886304 168.255378,203.886304 L119.622681,253.846365 C119.622681,253.846365 109.590155,264.790455 107.969598,268.335423 C106.34371,271.87506 107.132666,289.317369 107.132666,289.317369 L107.132666,366.58701 L62.3381296,324.788372 C62.3381296,324.788372 60.5043417,323.050538 59.1716469,319.793432 C57.8389522,316.530996 58.3400454,310.800408 58.3400454,310.800408 L56.9007351,182.333965 C78.8955292,178.064011 95.5595444,158.681299 95.5595444,135.455094 C95.5595444,109.105054 74.124482,87.6753222 47.7797722,87.6753222 C21.4297316,87.6753222 0,109.105054 0,135.455094 C0,158.82523 16.8772463,178.298565 39.0799409,182.403265 L40.5192512,315.46484 C40.5192512,315.46484 40.0874581,322.490806 42.0225309,326.451575 C43.9522729,330.417675 48.3501655,335.780439 48.3501655,335.780439 L102.638819,388.235304 C102.638819,388.235304 104.35533,390.245008 107.132666,395.730379 L106.967411,530.790996 C106.967411,530.790996 108.401391,544.704329 96.3111842,545.946401 L55.0083085,545.946401 L55.0083085,546.14364 L54.8483851,546.14364 L54.8483851,662.370614 L88.1550924,662.370614 L88.1550924,662.184037 L88.3150157,662.184037 L88.3150157,579.450347 L187.222289,579.450347 L187.222289,579.253108 L187.403536,579.253108 L187.403536,545.946401 L141.942652,545.946401 C133.253483,544.512421 129.964392,539.03238 129.282052,530.790996 L129.452637,503.977178 C133.690607,495.122754 142.273161,486.828062 142.273161,486.828062 L228.535827,397.564167 C228.535827,397.564167 231.734294,394.84547 233.035004,389.903838 C234.389022,384.775628 234.532953,380.574974 234.532953,380.574974 L234.383691,344.965371 C246.911022,340.92464 256,329.170273 256,315.320909 L256,315.320909 Z M149.640297,43.0673636 C149.640297,24.580222 164.673094,9.54209441 183.160236,9.54209441 C201.647377,9.54209441 216.685505,24.580222 216.685505,43.0673636 C216.685505,61.5545051 201.647377,76.5926327 183.160236,76.5926327 C164.673094,76.5926327 149.640297,61.5545051 149.640297,43.0673636 L149.640297,43.0673636 Z M9.54209441,135.455094 C9.54209441,114.371863 26.6965412,97.2174167 47.7797722,97.2174167 C68.8630031,97.2174167 86.01745,114.371863 86.01745,135.455094 C86.01745,156.538325 68.8630031,173.692772 47.7797722,173.692772 C26.6965412,173.692772 9.54209441,156.538325 9.54209441,135.455094 L9.54209441,135.455094 Z M224.852258,336.926556 C212.937967,336.926556 203.246611,327.229869 203.246611,315.320909 C203.246611,303.406618 212.937967,293.715261 224.852258,293.715261 C236.766549,293.715261 246.457906,303.406618 246.457906,315.320909 C246.457906,327.229869 236.766549,336.926556 224.852258,336.926556 Z M154.44866,675.590946 L54.8483851,675.590946 L54.8483851,708.897653 L187.755367,708.897653 L187.755367,592.505424 L154.44866,592.505424 L154.44866,675.590946 Z" fill="#587635"></path>
    </g>
</svg>
